X:57
T:Star Above the Garter
M:6/8
L:1/8
S:G (x3)
R:Slide
K:G
|: "G"d2B BAG | "D/F#"A3 ABA | "C/E"G2E cBA | "D/F#"BAG ABc |
"G"d2B BAG | "D/F#"A3 ABA | "C/E"G2E c2E | "D"DED D3 :||
|: "D"d2e "D/F#"fga | "Em"gfe "D"d2B | "C"G2B c2B | "D/F#"BAG A2z |
"D"d2e "D/F#"fga | "Em"gfe "D"d2B | "C"G2B c2E | "D"DED D3 :|
